packages/components/icon/src/assets/icons/archive.svg

<svg width="24" height="24" viewBox="0 0 24 24" fill="none" xmlns="http://www.w3.org/2000/svg">
<path fill-rule="evenodd" clip-rule="evenodd" d="M5 18.2586V13L7.62918 6H16.3708L19 13V18.2586H5ZM10.878 14.6078L13.055 14.6078L13.9425 13H17.2584L15.5 7.60781L8.5 7.59111L6.75835 13H10.0573L10.878 14.6078Z" fill="currentColor"/>
</svg>

<svg viewBox="0 0 24 24" fill="none" xmlns="http://www.w3.org/2000/svg"><path fill-rule="evenodd" clip-rule="evenodd" d="M5 18.259V13l2.63-7h8.74L19 13v5.259H5Zm5.878-3.651h2.177L13.943 13h3.315L15.5 7.608l-7-.017L6.758 13h3.3l.82 1.608Z" fill="currentColor"/></svg>
